flaticon/user-interface/uppercase.svg

<svg xmlns="http://www.w3.org/2000/svg" width="32" height="32" viewBox="0 0 24 24">
    <path d="M 0 0.199219 L 0 23.800781 L 24 23.800781 L 24 0.199219 Z M 23.199219 23 L 0.800781 23 L 0.800781 1 L 23.199219 1 Z M 23.199219 23"/>
    <path d="M11.464844 18.976562C11.507812 18.992188 11.554688 19 11.601562 19 11.761719 19 11.917969 18.898438 11.976562 18.738281L13.625 14.199219 19.175781 14.199219 20.824219 18.738281C20.882812 18.898438 21.035156 19 21.199219 19 21.246094 19 21.292969 18.992188 21.335938 18.976562 21.542969 18.902344 21.652344 18.671875 21.574219 18.464844L16.777344 5.261719C16.773438 5.257812 16.769531 5.253906 16.765625 5.25 16.757812 5.222656 16.738281 5.199219 16.722656 5.175781 16.710938 5.15625 16.699219 5.136719 16.679688 5.117188 16.664062 5.101562 16.644531 5.089844 16.625 5.078125 16.601562 5.0625 16.578125 5.042969 16.550781 5.03125 16.546875 5.03125 16.542969 5.027344 16.535156 5.023438 16.519531 5.019531 16.5 5.019531 16.484375 5.015625 16.457031 5.011719 16.429688 5.003906 16.398438 5.003906 16.371094 5.003906 16.34375 5.011719 16.320312 5.015625 16.300781 5.019531 16.28125 5.015625 16.261719 5.023438 16.257812 5.027344 16.253906 5.03125 16.25 5.03125 16.222656 5.042969 16.199219 5.058594 16.175781 5.078125 16.15625 5.089844 16.136719 5.101562 16.121094 5.117188 16.101562 5.136719 16.089844 5.15625 16.078125 5.175781 16.0625 5.199219 16.042969 5.222656 16.035156 5.25 16.03125 5.253906 16.027344 5.257812 16.023438 5.261719L11.226562 18.460938C11.148438 18.671875 11.257812 18.902344 11.464844 18.976562zM13.917969 13.398438L16.398438 6.570312 18.882812 13.398438zM3.058594 18.972656C3.105469 18.992188 3.152344 19 3.199219 19 3.359375 19 3.511719 18.902344 3.574219 18.742188L4.695312 15.800781 8.105469 15.800781 9.226562 18.742188C9.289062 18.902344 9.4375 19 9.601562 19 9.648438 19 9.695312 18.992188 9.742188 18.972656 9.949219 18.894531 10.050781 18.664062 9.972656 18.457031L6.773438 10.058594C6.773438 10.054688 6.769531 10.050781 6.765625 10.046875 6.753906 10.019531 6.738281 9.996094 6.71875 9.972656 6.707031 9.953125 6.695312 9.933594 6.679688 9.917969 6.664062 9.902344 6.644531 9.890625 6.625 9.878906 6.601562 9.863281 6.578125 9.84375 6.550781 9.832031 6.546875 9.832031 6.546875 9.828125 6.542969 9.824219 6.523438 9.820312 6.503906 9.820312 6.484375 9.816406 6.457031 9.808594 6.429688 9.800781 6.398438 9.800781 6.371094 9.800781 6.339844 9.808594 6.3125 9.816406 6.292969 9.820312 6.273438 9.820312 6.257812 9.824219 6.253906 9.828125 6.25 9.828125 6.246094 9.832031 6.21875 9.84375 6.195312 9.863281 6.171875 9.878906 6.152344 9.894531 6.132812 9.902344 6.117188 9.917969 6.101562 9.933594 6.089844 9.953125 6.078125 9.972656 6.0625 9.996094 6.042969 10.019531 6.03125 10.046875 6.03125 10.050781 6.027344 10.054688 6.027344 10.058594L2.824219 18.457031C2.746094 18.664062 2.851562 18.894531 3.058594 18.972656zM5 15L6.398438 11.324219 7.800781 15zM4.398438 6.601562C4.503906 6.601562 4.605469 6.5625 4.683594 6.484375L6 5.164062 6 8.199219C6 8.421875 6.179688 8.601562 6.398438 8.601562 6.621094 8.601562 6.800781 8.421875 6.800781 8.199219L6.800781 5.164062 8.117188 6.484375C8.195312 6.5625 8.296875 6.601562 8.398438 6.601562 8.503906 6.601562 8.605469 6.5625 8.683594 6.484375 8.839844 6.328125 8.839844 6.074219 8.683594 5.917969L6.683594 3.917969C6.644531 3.878906 6.601562 3.851562 6.554688 3.832031 6.457031 3.789062 6.34375 3.789062 6.246094 3.832031 6.199219 3.851562 6.152344 3.878906 6.117188 3.917969L4.117188 5.917969C3.960938 6.074219 3.960938 6.328125 4.117188 6.484375 4.195312 6.5625 4.296875 6.601562 4.398438 6.601562zM4.398438 6.601562"/>
</svg>

<svg xmlns="http://www.w3.org/2000/svg" width="32" height="32" viewBox="0 0 24 24">
    <path d="M0 .2v23.6h24V.2zM23.2 23H.8V1h22.4zm0 0"/>
    <path d="M11.465 18.977a.402.402 0 0 0 .512-.239l1.648-4.539h5.55l1.65 4.54a.4.4 0 0 0 .75-.274L16.776 5.262l-.011-.012c-.008-.027-.028-.05-.043-.074a.28.28 0 0 0-.043-.059c-.016-.015-.035-.027-.055-.039-.023-.016-.047-.035-.074-.047-.004 0-.008-.004-.016-.008-.015-.003-.035-.003-.05-.007-.028-.004-.055-.012-.087-.012-.027 0-.054.008-.078.012-.02.004-.039 0-.058.007-.004.004-.008.008-.012.008a.297.297 0 0 0-.074.047c-.02.012-.04.024-.055.04-.02.019-.031.038-.043.058-.015.023-.035.047-.043.074l-.012.012-4.796 13.199a.4.4 0 0 0 .238.516zm2.453-5.579l2.48-6.828 2.485 6.828zm0 0M3.059 18.973a.36.36 0 0 0 .14.027c.16 0 .313-.098.375-.258l1.121-2.941h3.41l1.122 2.941a.4.4 0 1 0 .746-.285l-3.2-8.398c0-.004-.003-.008-.007-.012a.297.297 0 0 0-.047-.074c-.012-.02-.024-.04-.04-.055-.015-.016-.034-.027-.054-.04-.023-.015-.047-.034-.074-.046-.004 0-.004-.004-.008-.008-.02-.004-.04-.004-.059-.008-.027-.007-.054-.015-.086-.015a.332.332 0 0 0-.085.015c-.02.004-.04.004-.055.008-.004.004-.008.004-.012.008-.027.012-.05.031-.074.047-.02.016-.04.023-.055.039s-.027.035-.039.055c-.016.023-.035.047-.047.074 0 .004-.004.008-.004.012l-3.203 8.398a.4.4 0 0 0 .235.516zM5 15l1.398-3.676L7.801 15zm0 0M4.398 6.602c.106 0 .207-.04.286-.118L6 5.164V8.2a.401.401 0 1 0 .8 0V5.164l1.317 1.32a.399.399 0 0 0 .566 0 .4.4 0 0 0 0-.566l-2-2a.392.392 0 0 0-.128-.086.385.385 0 0 0-.309 0 .356.356 0 0 0-.129.086l-2 2a.4.4 0 0 0 .281.684zm0 0"/>
</svg>
